icons/modern/onion.svg

<svg width="32" height="32" viewBox="0 0 32 32" fill="none" xmlns="http://www.w3.org/2000/svg">
<path d="M17.5914 26.4213H14.3524C14.0425 26.4213 13.7891 26.6794 13.7891 26.9949V27.1096C13.7891 27.7693 14.0703 28.3047 14.9626 28.3047H16.9905C17.9609 28.3047 18.1641 27.7693 18.1641 27.1096V26.9949C18.1547 26.6794 17.9012 26.4213 17.5914 26.4213Z" fill="#CE8732"/>
<path d="M18.4401 4.78498V3.10726C18.4401 2.72221 17.9643 2.53885 17.7081 2.83222L16.2532 4.40625C16.0885 4.59878 15.7957 4.59878 15.6218 4.40625L14.1669 2.83222C13.9107 2.53885 13.5469 2.72221 13.5469 3.10726V4.79414C13.5469 5.83928 12.8035 6.78357 11.8427 7.19613C8.08194 8.79134 5.4375 12.5227 5.4375 16.8774C5.4375 22.4515 10.0767 27.2462 15.6401 27.4021C21.5787 27.5671 26.4375 22.7907 26.4375 16.8866C26.4375 12.5318 23.7931 8.79134 20.0323 7.19613C19.0715 6.77441 18.4401 5.83928 18.4401 4.78498Z" fill="url(#paint0_linear_18_29582)"/>
<path d="M18.4401 4.78498V3.10726C18.4401 2.72221 17.9643 2.53885 17.7081 2.83222L16.2532 4.40625C16.0885 4.59878 15.7957 4.59878 15.6218 4.40625L14.1669 2.83222C13.9107 2.53885 13.5469 2.72221 13.5469 3.10726V4.79414C13.5469 5.83928 12.8035 6.78357 11.8427 7.19613C8.08194 8.79134 5.4375 12.5227 5.4375 16.8774C5.4375 22.4515 10.0767 27.2462 15.6401 27.4021C21.5787 27.5671 26.4375 22.7907 26.4375 16.8866C26.4375 12.5318 23.7931 8.79134 20.0323 7.19613C19.0715 6.77441 18.4401 5.83928 18.4401 4.78498Z" fill="url(#paint1_radial_18_29582)"/>
<path d="M18.4401 4.78498V3.10726C18.4401 2.72221 17.9643 2.53885 17.7081 2.83222L16.2532 4.40625C16.0885 4.59878 15.7957 4.59878 15.6218 4.40625L14.1669 2.83222C13.9107 2.53885 13.5469 2.72221 13.5469 3.10726V4.79414C13.5469 5.83928 12.8035 6.78357 11.8427 7.19613C8.08194 8.79134 5.4375 12.5227 5.4375 16.8774C5.4375 22.4515 10.0767 27.2462 15.6401 27.4021C21.5787 27.5671 26.4375 22.7907 26.4375 16.8866C26.4375 12.5318 23.7931 8.79134 20.0323 7.19613C19.0715 6.77441 18.4401 5.83928 18.4401 4.78498Z" fill="url(#paint2_radial_18_29582)"/>
<path d="M18.4401 4.78498V3.10726C18.4401 2.72221 17.9643 2.53885 17.7081 2.83222L16.2532 4.40625C16.0885 4.59878 15.7957 4.59878 15.6218 4.40625L14.1669 2.83222C13.9107 2.53885 13.5469 2.72221 13.5469 3.10726V4.79414C13.5469 5.83928 12.8035 6.78357 11.8427 7.19613C8.08194 8.79134 5.4375 12.5227 5.4375 16.8774C5.4375 22.4515 10.0767 27.2462 15.6401 27.4021C21.5787 27.5671 26.4375 22.7907 26.4375 16.8866C26.4375 12.5318 23.7931 8.79134 20.0323 7.19613C19.0715 6.77441 18.4401 5.83928 18.4401 4.78498Z" fill="url(#paint3_linear_18_29582)"/>
<path d="M18.4401 4.78498V3.10726C18.4401 2.72221 17.9643 2.53885 17.7081 2.83222L16.2532 4.40625C16.0885 4.59878 15.7957 4.59878 15.6218 4.40625L14.1669 2.83222C13.9107 2.53885 13.5469 2.72221 13.5469 3.10726V4.79414C13.5469 5.83928 12.8035 6.78357 11.8427 7.19613C8.08194 8.79134 5.4375 12.5227 5.4375 16.8774C5.4375 22.4515 10.0767 27.2462 15.6401 27.4021C21.5787 27.5671 26.4375 22.7907 26.4375 16.8866C26.4375 12.5318 23.7931 8.79134 20.0323 7.19613C19.0715 6.77441 18.4401 5.83928 18.4401 4.78498Z" fill="url(#paint4_radial_18_29582)"/>
<path d="M18.4401 4.78498V3.10726C18.4401 2.72221 17.9643 2.53885 17.7081 2.83222L16.2532 4.40625C16.0885 4.59878 15.7957 4.59878 15.6218 4.40625L14.1669 2.83222C13.9107 2.53885 13.5469 2.72221 13.5469 3.10726V4.79414C13.5469 5.83928 12.8035 6.78357 11.8427 7.19613C8.08194 8.79134 5.4375 12.5227 5.4375 16.8774C5.4375 22.4515 10.0767 27.2462 15.6401 27.4021C21.5787 27.5671 26.4375 22.7907 26.4375 16.8866C26.4375 12.5318 23.7931 8.79134 20.0323 7.19613C19.0715 6.77441 18.4401 5.83928 18.4401 4.78498Z" fill="url(#paint5_radial_18_29582)"/>
<path d="M16.9062 26.875C19.5062 19.5 19.3438 12.75 16.9062 7.09375C18.0312 8.5 19.5938 11.2188 19.5938 16.4375C19.5938 22.4688 17.8854 24.9896 16.9062 26.875Z" fill="url(#paint6_linear_18_29582)"/>
<path d="M24.3125 16.4375C24.3125 21.8438 22.3125 23.2812 20.125 26.0938C23.1158 22.2484 23.5625 19.75 23.5625 16.4375C23.5625 13.5781 23.0278 11.1854 20.125 7.875C21.8438 9.5625 24.3125 11.875 24.3125 16.4375Z" fill="url(#paint7_linear_18_29582)"/>
<path d="M7.56274 16.4375C7.56274 21.8438 9.56274 23.2812 11.7502 26.0938C8.75942 22.2484 8.31274 19.75 8.31274 16.4375C8.31274 13.5781 8.84744 11.1854 11.7502 7.875C10.0315 9.5625 7.56274 11.875 7.56274 16.4375Z" fill="url(#paint8_linear_18_29582)"/>
<path d="M14.9688 26.875C12.3688 19.5 12.5312 12.75 14.9688 7.09375C13.8438 8.5 12.2812 11.2188 12.2812 16.4375C12.2812 22.4688 13.9896 24.9896 14.9688 26.875Z" fill="url(#paint9_linear_18_29582)"/>
<rect width="32" height="32"/>
<defs>
<linearGradient id="paint0_linear_18_29582" x1="17.1614" y1="2.974" x2="17.1039" y2="27.0396" gradientUnits="userSpaceOnUse">
<stop stop-color="#D0A770"/>
<stop offset="0.0944421" stop-color="#DCB074"/>
<stop offset="0.229482" stop-color="#D9AA65"/>
<stop offset="0.460878" stop-color="#E2A35B"/>
<stop offset="0.87135" stop-color="#DE804E"/>
<stop offset="0.9944" stop-color="#C0635B"/>
</linearGradient>
<radialGradient id="paint1_radial_18_29582" cx="0" cy="0" r="1" gradientUnits="userSpaceOnUse" gradientTransform="translate(22.375 15.9375) rotate(149.497) scale(14.6529 12.4485)">
<stop offset="0.212961" stop-color="#FFCF80"/>
<stop offset="0.80295" stop-color="#FFCF80" stop-opacity="0"/>
</radialGradient>
<radialGradient id="paint2_radial_18_29582" cx="0" cy="0" r="1" gradientUnits="userSpaceOnUse" gradientTransform="translate(15.9375 16.1875) rotate(90) scale(13.625 19.625)">
<stop offset="0.533333" stop-color="#AA7C4B" stop-opacity="0"/>
<stop offset="1" stop-color="#A87A48"/>
</radialGradient>
<linearGradient id="paint3_linear_18_29582" x1="1.625" y1="15.6875" x2="15.5" y2="15.8125" gradientUnits="userSpaceOnUse">
<stop stop-color="#A67746"/>
<stop offset="1" stop-color="#EAA260" stop-opacity="0"/>
</linearGradient>
<radialGradient id="paint4_radial_18_29582" cx="0" cy="0" r="1" gradientUnits="userSpaceOnUse" gradientTransform="translate(2.25 32.3125) rotate(-32.1407) scale(22.4389 19.0631)">
<stop stop-color="#A6525E"/>
<stop offset="1" stop-color="#A6535A" stop-opacity="0"/>
</radialGradient>
<radialGradient id="paint5_radial_18_29582" cx="0" cy="0" r="1" gradientUnits="userSpaceOnUse" gradientTransform="translate(18.1875 3.9375) rotate(130.601) scale(3.45733 2.9372)">
<stop stop-color="#FFE1A3"/>
<stop offset="1" stop-color="#FFE2A3" stop-opacity="0"/>
</radialGradient>
<linearGradient id="paint6_linear_18_29582" x1="18.25" y1="7.09375" x2="18.25" y2="26.875" gradientUnits="userSpaceOnUse">
<stop offset="0.0236967" stop-color="#D8AB66"/>
<stop offset="0.295419" stop-color="#EEA447"/>
<stop offset="0.478673" stop-color="#F8A965"/>
<stop offset="0.649289" stop-color="#F09358"/>
<stop offset="0.778831" stop-color="#EB8C47"/>
<stop offset="0.883096" stop-color="#CB7653"/>
<stop offset="0.974724" stop-color="#C57253"/>
</linearGradient>
<linearGradient id="paint7_linear_18_29582" x1="22.2188" y1="7.875" x2="22.2188" y2="26.0938" gradientUnits="userSpaceOnUse">
<stop stop-color="#DFB16B"/>
<stop offset="0.202401" stop-color="#F6B65A"/>
<stop offset="0.463122" stop-color="#FFB35E"/>
<stop offset="0.682676" stop-color="#FFA156"/>
<stop offset="0.864494" stop-color="#F59642"/>
<stop offset="1" stop-color="#EA8C4E"/>
</linearGradient>
<linearGradient id="paint8_linear_18_29582" x1="9.65649" y1="7.875" x2="9.65649" y2="26.0938" gradientUnits="userSpaceOnUse">
<stop stop-color="#AF8754"/>
<stop offset="0.233276" stop-color="#B28350"/>
<stop offset="0.473413" stop-color="#B07647"/>
<stop offset="0.692967" stop-color="#AA6744"/>
<stop offset="1" stop-color="#AB5A45"/>
</linearGradient>
<linearGradient id="paint9_linear_18_29582" x1="13.625" y1="7.09375" x2="13.625" y2="26.875" gradientUnits="userSpaceOnUse">
<stop stop-color="#BD965B"/>
<stop offset="0.295419" stop-color="#C58F4B"/>
<stop offset="0.478673" stop-color="#C57A35"/>
<stop offset="0.649289" stop-color="#C56D3E"/>
<stop offset="0.778831" stop-color="#C97044"/>
<stop offset="1" stop-color="#BE6250"/>
</linearGradient>
</defs>
</svg>

<svg width="32" height="32" fill="none" xmlns="http://www.w3.org/2000/svg"><path d="M17.591 26.421h-3.239a.57.57 0 0 0-.563.574v.115c0 .66.281 1.195 1.174 1.195h2.028c.97 0 1.173-.536 1.173-1.195v-.115a.584.584 0 0 0-.573-.574Z" fill="#CE8732"/><path d="M18.44 4.785V3.107a.417.417 0 0 0-.732-.275l-1.455 1.574a.417.417 0 0 1-.631 0l-1.455-1.574c-.256-.293-.62-.11-.62.275v1.687c0 1.045-.744 1.99-1.704 2.402a10.513 10.513 0 0 0-6.405 9.681c0 5.575 4.639 10.37 10.202 10.525 5.939.165 10.797-4.611 10.797-10.515 0-4.355-2.644-8.096-6.405-9.69a2.635 2.635 0 0 1-1.592-2.412Z" fill="url(#a)"/><path d="M18.44 4.785V3.107a.417.417 0 0 0-.732-.275l-1.455 1.574a.417.417 0 0 1-.631 0l-1.455-1.574c-.256-.293-.62-.11-.62.275v1.687c0 1.045-.744 1.99-1.704 2.402a10.513 10.513 0 0 0-6.405 9.681c0 5.575 4.639 10.37 10.202 10.525 5.939.165 10.797-4.611 10.797-10.515 0-4.355-2.644-8.096-6.405-9.69a2.635 2.635 0 0 1-1.592-2.412Z" fill="url(#b)"/><path d="M18.44 4.785V3.107a.417.417 0 0 0-.732-.275l-1.455 1.574a.417.417 0 0 1-.631 0l-1.455-1.574c-.256-.293-.62-.11-.62.275v1.687c0 1.045-.744 1.99-1.704 2.402a10.513 10.513 0 0 0-6.405 9.681c0 5.575 4.639 10.37 10.202 10.525 5.939.165 10.797-4.611 10.797-10.515 0-4.355-2.644-8.096-6.405-9.69a2.635 2.635 0 0 1-1.592-2.412Z" fill="url(#c)"/><path d="M18.44 4.785V3.107a.417.417 0 0 0-.732-.275l-1.455 1.574a.417.417 0 0 1-.631 0l-1.455-1.574c-.256-.293-.62-.11-.62.275v1.687c0 1.045-.744 1.99-1.704 2.402a10.513 10.513 0 0 0-6.405 9.681c0 5.575 4.639 10.37 10.202 10.525 5.939.165 10.797-4.611 10.797-10.515 0-4.355-2.644-8.096-6.405-9.69a2.635 2.635 0 0 1-1.592-2.412Z" fill="url(#d)"/><path d="M18.44 4.785V3.107a.417.417 0 0 0-.732-.275l-1.455 1.574a.417.417 0 0 1-.631 0l-1.455-1.574c-.256-.293-.62-.11-.62.275v1.687c0 1.045-.744 1.99-1.704 2.402a10.513 10.513 0 0 0-6.405 9.681c0 5.575 4.639 10.37 10.202 10.525 5.939.165 10.797-4.611 10.797-10.515 0-4.355-2.644-8.096-6.405-9.69a2.635 2.635 0 0 1-1.592-2.412Z" fill="url(#e)"/><path d="M18.44 4.785V3.107a.417.417 0 0 0-.732-.275l-1.455 1.574a.417.417 0 0 1-.631 0l-1.455-1.574c-.256-.293-.62-.11-.62.275v1.687c0 1.045-.744 1.99-1.704 2.402a10.513 10.513 0 0 0-6.405 9.681c0 5.575 4.639 10.37 10.202 10.525 5.939.165 10.797-4.611 10.797-10.515 0-4.355-2.644-8.096-6.405-9.69a2.635 2.635 0 0 1-1.592-2.412Z" fill="url(#f)"/><path d="M16.906 26.875c2.6-7.375 2.438-14.125 0-19.781 1.125 1.406 2.688 4.125 2.688 9.343 0 6.032-1.709 8.553-2.688 10.438Z" fill="url(#g)"/><path d="M24.313 16.438c0 5.406-2 6.843-4.188 9.656 2.99-3.846 3.438-6.344 3.438-9.657 0-2.859-.535-5.252-3.438-8.562 1.719 1.688 4.188 4 4.188 8.563Z" fill="url(#h)"/><path d="M7.563 16.438c0 5.406 2 6.843 4.187 9.656-2.99-3.846-3.437-6.344-3.437-9.657 0-2.859.534-5.252 3.437-8.562-1.719 1.688-4.187 4-4.187 8.563Z" fill="url(#i)"/><path d="M14.969 26.875c-2.6-7.375-2.438-14.125 0-19.781-1.125 1.406-2.688 4.125-2.688 9.343 0 6.032 1.709 8.553 2.688 10.438Z" fill="url(#j)"/><path d="M0 0h32v32H0z"/><defs><linearGradient id="a" x1="17.161" y1="2.974" x2="17.104" y2="27.04" gradientUnits="userSpaceOnUse"><stop stop-color="#D0A770"/><stop offset=".094" stop-color="#DCB074"/><stop offset=".229" stop-color="#D9AA65"/><stop offset=".461" stop-color="#E2A35B"/><stop offset=".871" stop-color="#DE804E"/><stop offset=".994" stop-color="#C0635B"/></linearGradient><linearGradient id="d" x1="1.625" y1="15.688" x2="15.5" y2="15.813" gradientUnits="userSpaceOnUse"><stop stop-color="#A67746"/><stop offset="1" stop-color="#EAA260" stop-opacity="0"/></linearGradient><linearGradient id="g" x1="18.25" y1="7.094" x2="18.25" y2="26.875" gradientUnits="userSpaceOnUse"><stop offset=".024" stop-color="#D8AB66"/><stop offset=".295" stop-color="#EEA447"/><stop offset=".479" stop-color="#F8A965"/><stop offset=".649" stop-color="#F09358"/><stop offset=".779" stop-color="#EB8C47"/><stop offset=".883" stop-color="#CB7653"/><stop offset=".975" stop-color="#C57253"/></linearGradient><linearGradient id="h" x1="22.219" y1="7.875" x2="22.219" y2="26.094" gradientUnits="userSpaceOnUse"><stop stop-color="#DFB16B"/><stop offset=".202" stop-color="#F6B65A"/><stop offset=".463" stop-color="#FFB35E"/><stop offset=".683" stop-color="#FFA156"/><stop offset=".864" stop-color="#F59642"/><stop offset="1" stop-color="#EA8C4E"/></linearGradient><linearGradient id="i" x1="9.656" y1="7.875" x2="9.656" y2="26.094" gradientUnits="userSpaceOnUse"><stop stop-color="#AF8754"/><stop offset=".233" stop-color="#B28350"/><stop offset=".473" stop-color="#B07647"/><stop offset=".693" stop-color="#AA6744"/><stop offset="1" stop-color="#AB5A45"/></linearGradient><linearGradient id="j" x1="13.625" y1="7.094" x2="13.625" y2="26.875" gradientUnits="userSpaceOnUse"><stop stop-color="#BD965B"/><stop offset=".295" stop-color="#C58F4B"/><stop offset=".479" stop-color="#C57A35"/><stop offset=".649" stop-color="#C56D3E"/><stop offset=".779" stop-color="#C97044"/><stop offset="1" stop-color="#BE6250"/></linearGradient><radialGradient id="b" cx="0" cy="0" r="1" gradientUnits="userSpaceOnUse" gradientTransform="matrix(-12.62498 7.43757 -6.31865 -10.72566 22.375 15.938)"><stop offset=".213" stop-color="#FFCF80"/><stop offset=".803" stop-color="#FFCF80" stop-opacity="0"/></radialGradient><radialGradient id="c" cx="0" cy="0" r="1" gradientUnits="userSpaceOnUse" gradientTransform="matrix(0 13.625 -19.625 0 15.938 16.188)"><stop offset=".533" stop-color="#AA7C4B" stop-opacity="0"/><stop offset="1" stop-color="#A87A48"/></radialGradient><radialGradient id="e" cx="0" cy="0" r="1" gradientUnits="userSpaceOnUse" gradientTransform="matrix(19 -11.9375 10.14157 16.14157 2.25 32.313)"><stop stop-color="#A6525E"/><stop offset="1" stop-color="#A6535A" stop-opacity="0"/></radialGradient><radialGradient id="f" cx="0" cy="0" r="1" gradientUnits="userSpaceOnUse" gradientTransform="matrix(-2.24999 2.62501 -2.2301 -1.9115 18.188 3.938)"><stop stop-color="#FFE1A3"/><stop offset="1" stop-color="#FFE2A3" stop-opacity="0"/></radialGradient></defs></svg>
